images/work/google-santa-tracker/santa-tracker-illustration.min.svg

<svg xmlns="http://www.w3.org/2000/svg" viewBox="0 -84 418 700" enable-background="new 0 -84 418 700"><path fill="#D43B2B" d="M229.4 366.8h53.9v143.7h-53.9z"/><path fill="#414141" d="M283.3 495.2v-38.6h-53.9v73.9h88.5c0-16.6-17.3-35.9-35.9-35.9"/><path fill="#fff" d="M229.4 430h53.9v26.6h-53.9z"/><path fill="#D43B2B" d="M152.4 366.8h53.9v143.7h-53.9z"/><path fill="#414141" d="M152.4 495.2v-38.6h53.9v73.9h-88.5c0-16.6 17.3-35.9 35.9-35.9"/><path fill="#fff" d="M152.4 430h53.9v26.6h-53.9z"/><path fill="#D43B2B" d="M131.5 338.4c19.1 48.2 73.5 72 121.4 53.1 48-18.9 71.3-73.2 52.2-121.4-19.1-48.2-73.5-72-121.5-53.2-47.9 19-71.2 73.3-52.1 121.5z"/><path fill="#ED9D98" d="M252.6 107.7c-2.2 8.1-10.7 12.8-19 10.5-8.3-2.3-13.2-10.6-11-18.7 2.2-8.1 10.7-12.8 19-10.5 8.3 2.2 13.2 10.6 11 18.7z"/><path fill="#ED9D98" d="M353.2 135.2c-2.2 8.1-10.7 12.8-19 10.5-8.3-2.3-13.2-10.7-11-18.8 2.2-8.1 10.7-12.8 19-10.5 8.3 2.3 13.2 10.7 11 18.8z"/><path fill="#F9D099" d="M341.1 140.5c-8.2 29.9-39.6 47.3-70.2 38.9-30.6-8.4-48.8-39.4-40.6-69.2 8.2-29.9 39.6-47.3 70.2-38.9 30.6 8.3 48.8 39.3 40.6 69.2z"/><path fill="#E82128" d="M349 111.5c-1.5-14-6-27.5-13-39.5-13-22.3-47.5-43.2-74.7-50.7l-16.8 61.6 104.5 28.6z"/><path fill="#fff" d="M254.3 21.7c-2.5 9.1-12.1 14.4-21.4 11.9-9.3-2.6-14.9-12-12.4-21.1 2.5-9.1 12.1-14.4 21.4-11.9 9.3 2.6 14.9 12 12.4 21.1z"/><path fill="#fff" d="M356.3 112c-1.2 4.2-5.7 6.7-10 5.6l-108.7-29.8c-4.4-1.2-7-5.6-5.8-9.9l5.8-21.3c1.2-4.2 5.7-6.8 10-5.6l108.7 29.7c4.3 1.2 6.9 5.6 5.8 9.9l-5.8 21.4z"/><path fill="#F9D099" d="M230.291 110.15l110.833 30.299-7.515 27.491-110.833-30.299z"/><path fill="#4E4E4E" d="M266.6 104.7c-.5 1.9-2.5 3-4.5 2.5-1.9-.5-3.1-2.5-2.6-4.4.5-1.9 2.5-3 4.5-2.5 1.9.5 3.1 2.5 2.6 4.4z"/><path fill="#4E4E4E" d="M312.7 117.3c-.5 1.9.6 3.9 2.6 4.4 1.9.5 3.9-.6 4.5-2.5.5-1.9-.6-3.9-2.6-4.4-2-.5-4 .6-4.5 2.5z"/><path fill="#4E4E4E" d="M266.6 104.7c-.5 1.9-2.5 3-4.5 2.5-1.9-.5-3.1-2.5-2.6-4.4 1.5-2.9 3.5-4.1 4.5-2.5 1.9.5 3.1 2.5 2.6 4.4z"/><path fill="#4E4E4E" d="M312.7 117.3c-.5 1.9.6 3.9 2.6 4.4 1.9.5 3.9-.6 4.5-2.5.5-1.9-.6-3.9-2.6-4.4-2-.5-4 .6-4.5 2.5z"/><path fill="#fff" d="M340 190.6c-7.7 28.1-37.2 44.5-66 36.6-70.4-19.2-77.5-100.3-69.8-128.4 13 3.6 68.8 18.8 97.6 26.7s45.9 37 38.2 65.1z"/><path fill="#ED9D98" d="M301.8 125.5c-1.8 6.6-10 10.1-18.2 7.8-8.3-2.3-13.5-9.4-11.7-16 1.8-6.6 10-10.1 18.2-7.8 8.2 2.2 13.5 9.4 11.7 16z"/><path fill="#4E4E4E" d="M231.5 178.6c0 6.4-5.2 11.6-11.6 11.6-6.4 0-11.6-5.2-11.6-11.6"/><path fill="#414141" d="M124.4 290h187.8v25.6h-187.8z"/><path fill="#FEDF00" d="M56.9 442.9h87.8v87.8h-87.8z"/><path fill="#924496" d="M105.9 481.8v-38.9h-11.7v38.9h-37.3v11.8h37.3v37.1h11.7v-37.1h38.8v-11.8z"/><path fill="#DA4737" d="M291 462.1h68.1v68.1h-68.1z"/><path fill="#FEDF00" d="M330.2 491.2v-29.1h-11.8v29.1h-27.4v11.8h27.4v27.3h11.8v-27.3h28.9v-11.8z"/><path fill="#F68B37" d="M363.3 478h52.7v52.7h-52.7z"/><path fill="#924496" d="M395.3 498.2v-20.2h-11.8v20.2h-20.2v11.8h20.2v20.7h11.8v-20.7h20.7v-11.8z"/><path fill="#2A56FF" d="M0 478h52.7v52.7h-52.7z"/><path fill="#FEDF00" d="M31.9 498.2v-20.2h-11.7v20.2h-20.2v11.8h20.2v20.7h11.7v-20.7h20.8v-11.8z"/><path fill="#735F4E" d="M200.2 387.1h34.6v43.9h-34.6z"/><path fill="#CF8329" d="M262.5 530.7h-90.1l-11.5-113.1h113.1z"/><path fill="#099149" d="M390.5 400.3h-345l172.5-196.3z"/><path fill="#099149" d="M351.5 277.2l-293.3 69 112.1-181.5z"/><path fill="#099149" d="M283.8 183.5l-209.3 91.4 59.5-149z"/><path fill="#099149" d="M194.4 122.9l-116.4 96.2.3-118z"/><path fill="#FED049" stroke="#FED049" stroke-width="1.1" stroke-linejoin="round" stroke-miterlimit="10" d="M46.4 61.8l17.1 7.6 16-9.7-2 18.6 14.2 12.2-18.3 3.8-7.2 17.3-9.3-16.3-18.7-1.5 12.6-13.8z"/><path fill="#FED049" stroke="#FED049" stroke-width="1.1" stroke-linejoin="round" stroke-miterlimit="10" d="M73.8 94.8l5 15.1 4.5-3.6 4.4-3.7z"/><path fill="#924496" d="M152.5 261.9c1.2 5.2-2 10.3-7.1 11.5-5.2 1.2-10.3-2-11.5-7.1-1.2-5.2 2-10.3 7.1-11.5 5.1-1.2 10.3 2 11.5 7.1z"/><circle fill="#26B2E7" cx="176.3" cy="330.2" r="9.6"/><circle fill="#F68B37" cx="318.7" cy="371.8" r="9.6"/><path fill="#D53F2D" d="M283.8 267.5c1.2 5.2-2 10.3-7.1 11.5-5.2 1.2-10.3-2-11.5-7.1-1.2-5.2 2-10.3 7.1-11.5 5.1-1.2 10.3 2 11.5 7.1z"/><path fill="#D53F2D" d="M160.6 173.1c2.1 4.9-.1 10.5-4.9 12.6-4.9 2.1-10.5-.1-12.6-4.9-2.1-4.8.1-10.5 4.9-12.6 4.9-2.2 10.5 0 12.6 4.9z"/><path fill="#26B2E7" d="M121 125.9c3.4 4.1 2.8 10.1-1.3 13.5-4.1 3.4-10.1 2.8-13.5-1.3-3.4-4.1-2.8-10.1 1.3-13.5 4.1-3.4 10.1-2.8 13.5 1.3z"/><path stroke="#F4C236" stroke-width="10" stroke-linecap="round" stroke-miterlimit="10" stroke-dasharray="0.1,17.5" d="M93.7 347.2c75.2 34.6 189.6 8.7 227.6-26.6" fill="none"/><path stroke="#F4C236" stroke-width="10" stroke-linecap="round" stroke-miterlimit="10" stroke-dasharray="0.1,17.5" d="M95 295.2c81.1 16.5 146.6-27.6 175.5-70.6" fill="none"/><path stroke="#F4C236" stroke-width="10" stroke-linecap="round" stroke-miterlimit="10" stroke-dasharray="0.1,17.5" d="M94.9 222.8c58.2-1.4 96.1-26 116.8-73.5" fill="none"/><path fill="#fff" d="M103.2 311.9c-5.4 10.2-18.1 14-28.3 8.6s-14-18.1-8.6-28.3l4.9-9.2c5.4-10.2 18.1-14 28.3-8.6s14 18.1 8.6 28.3l-4.9 9.2z"/><path fill="#fff" d="M292.2 261.5c9.4 6.7 22.4 4.5 29.1-4.9 6.7-9.4 4.5-22.4-4.9-29.1l-8.5-6.1c-9.4-6.7-22.4-4.5-29.1 4.9-6.7 9.4-4.5 22.4 4.9 29.1l8.5 6.1z"/><path fill="#4E4E4E" d="M303.3 147.5c-1.9 12.5-13.5 21-26 19.1-12.4-1.9-21-13.6-19.1-26"/></svg>

<svg xmlns="http://www.w3.org/2000/svg" viewBox="0 -84 418 700" enable-background="new 0 -84 418 700"><path fill="#D43B2B" d="M229.4 366.8h53.9v143.7h-53.9z"/><path fill="#414141" d="M283.3 495.2v-38.6h-53.9v73.9h88.5c0-16.6-17.3-35.9-35.9-35.9"/><path fill="#fff" d="M229.4 430h53.9v26.6h-53.9z"/><path fill="#D43B2B" d="M152.4 366.8h53.9v143.7h-53.9z"/><path fill="#414141" d="M152.4 495.2v-38.6h53.9v73.9h-88.5c0-16.6 17.3-35.9 35.9-35.9"/><path fill="#fff" d="M152.4 430h53.9v26.6h-53.9z"/><path fill="#D43B2B" d="M131.5 338.4c19.1 48.2 73.5 72 121.4 53.1 48-18.9 71.3-73.2 52.2-121.4-19.1-48.2-73.5-72-121.5-53.2-47.9 19-71.2 73.3-52.1 121.5z"/><path fill="#ED9D98" d="M252.6 107.7c-2.2 8.1-10.7 12.8-19 10.5-8.3-2.3-13.2-10.6-11-18.7 2.2-8.1 10.7-12.8 19-10.5 8.3 2.2 13.2 10.6 11 18.7z"/><path fill="#ED9D98" d="M353.2 135.2c-2.2 8.1-10.7 12.8-19 10.5-8.3-2.3-13.2-10.7-11-18.8 2.2-8.1 10.7-12.8 19-10.5 8.3 2.3 13.2 10.7 11 18.8z"/><path fill="#F9D099" d="M341.1 140.5c-8.2 29.9-39.6 47.3-70.2 38.9-30.6-8.4-48.8-39.4-40.6-69.2 8.2-29.9 39.6-47.3 70.2-38.9 30.6 8.3 48.8 39.3 40.6 69.2z"/><path fill="#E82128" d="M349 111.5c-1.5-14-6-27.5-13-39.5-13-22.3-47.5-43.2-74.7-50.7l-16.8 61.6L349 111.5z"/><path fill="#fff" d="M254.3 21.7c-2.5 9.1-12.1 14.4-21.4 11.9-9.3-2.6-14.9-12-12.4-21.1C223 3.4 232.6-1.9 241.9.6c9.3 2.6 14.9 12 12.4 21.1z"/><path fill="#fff" d="M356.3 112c-1.2 4.2-5.7 6.7-10 5.6L237.6 87.8c-4.4-1.2-7-5.6-5.8-9.9l5.8-21.3c1.2-4.2 5.7-6.8 10-5.6l108.7 29.7c4.3 1.2 6.9 5.6 5.8 9.9l-5.8 21.4z"/><path fill="#F9D099" d="M230.29 110.15l110.833 30.3-7.515 27.49-110.833-30.3z"/><path fill="#4E4E4E" d="M266.6 104.7c-.5 1.9-2.5 3-4.5 2.5-1.9-.5-3.1-2.5-2.6-4.4.5-1.9 2.5-3 4.5-2.5 1.9.5 3.1 2.5 2.6 4.4z"/><path fill="#4E4E4E" d="M312.7 117.3c-.5 1.9.6 3.9 2.6 4.4 1.9.5 3.9-.6 4.5-2.5.5-1.9-.6-3.9-2.6-4.4-2-.5-4 .6-4.5 2.5z"/><path fill="#4E4E4E" d="M266.6 104.7c-.5 1.9-2.5 3-4.5 2.5-1.9-.5-3.1-2.5-2.6-4.4 1.5-2.9 3.5-4.1 4.5-2.5 1.9.5 3.1 2.5 2.6 4.4z"/><path fill="#4E4E4E" d="M312.7 117.3c-.5 1.9.6 3.9 2.6 4.4 1.9.5 3.9-.6 4.5-2.5.5-1.9-.6-3.9-2.6-4.4-2-.5-4 .6-4.5 2.5z"/><path fill="#fff" d="M340 190.6c-7.7 28.1-37.2 44.5-66 36.6-70.4-19.2-77.5-100.3-69.8-128.4 13 3.6 68.8 18.8 97.6 26.7s45.9 37 38.2 65.1z"/><path fill="#ED9D98" d="M301.8 125.5c-1.8 6.6-10 10.1-18.2 7.8-8.3-2.3-13.5-9.4-11.7-16 1.8-6.6 10-10.1 18.2-7.8 8.2 2.2 13.5 9.4 11.7 16z"/><path fill="#4E4E4E" d="M231.5 178.6c0 6.4-5.2 11.6-11.6 11.6-6.4 0-11.6-5.2-11.6-11.6"/><path fill="#414141" d="M124.4 290h187.8v25.6H124.4z"/><path fill="#FEDF00" d="M56.9 442.9h87.8v87.8H56.9z"/><path fill="#924496" d="M105.9 481.8v-38.9H94.2v38.9H56.9v11.8h37.3v37.1h11.7v-37.1h38.8v-11.8z"/><path fill="#DA4737" d="M291 462.1h68.1v68.1H291z"/><path fill="#FEDF00" d="M330.2 491.2v-29.1h-11.8v29.1H291V503h27.4v27.3h11.8V503h28.9v-11.8z"/><path fill="#F68B37" d="M363.3 478H416v52.7h-52.7z"/><path fill="#924496" d="M395.3 498.2V478h-11.8v20.2h-20.2V510h20.2v20.7h11.8V510H416v-11.8z"/><path fill="#2A56FF" d="M0 478h52.7v52.7H0z"/><path fill="#FEDF00" d="M31.9 498.2V478H20.2v20.2H0V510h20.2v20.7h11.7V510h20.8v-11.8z"/><path fill="#735F4E" d="M200.2 387.1h34.6V431h-34.6z"/><path fill="#CF8329" d="M262.5 530.7h-90.1l-11.5-113.1H274z"/><path fill="#099149" d="M390.5 400.3h-345L218 204z"/><path fill="#099149" d="M351.5 277.2l-293.3 69 112.1-181.5z"/><path fill="#099149" d="M283.8 183.5L74.5 274.9l59.5-149z"/><path fill="#099149" d="M194.4 122.9L78 219.1l.3-118z"/><path fill="#FED049" stroke="#FED049" stroke-width="1.1" stroke-linejoin="round" stroke-miterlimit="10" d="M46.4 61.8l17.1 7.6 16-9.7-2 18.6 14.2 12.2-18.3 3.8-7.2 17.3-9.3-16.3-18.7-1.5L50.8 80z"/><path fill="#FED049" stroke="#FED049" stroke-width="1.1" stroke-linejoin="round" stroke-miterlimit="10" d="M73.8 94.8l5 15.1 4.5-3.6 4.4-3.7z"/><path fill="#924496" d="M152.5 261.9c1.2 5.2-2 10.3-7.1 11.5-5.2 1.2-10.3-2-11.5-7.1-1.2-5.2 2-10.3 7.1-11.5 5.1-1.2 10.3 2 11.5 7.1z"/><circle fill="#26B2E7" cx="176.3" cy="330.2" r="9.6"/><circle fill="#F68B37" cx="318.7" cy="371.8" r="9.6"/><path fill="#D53F2D" d="M283.8 267.5c1.2 5.2-2 10.3-7.1 11.5-5.2 1.2-10.3-2-11.5-7.1-1.2-5.2 2-10.3 7.1-11.5 5.1-1.2 10.3 2 11.5 7.1z"/><path fill="#D53F2D" d="M160.6 173.1c2.1 4.9-.1 10.5-4.9 12.6-4.9 2.1-10.5-.1-12.6-4.9-2.1-4.8.1-10.5 4.9-12.6 4.9-2.2 10.5 0 12.6 4.9z"/><path fill="#26B2E7" d="M121 125.9c3.4 4.1 2.8 10.1-1.3 13.5-4.1 3.4-10.1 2.8-13.5-1.3-3.4-4.1-2.8-10.1 1.3-13.5 4.1-3.4 10.1-2.8 13.5 1.3z"/><path stroke="#F4C236" stroke-width="10" stroke-linecap="round" stroke-miterlimit="10" stroke-dasharray="0.1,17.5" d="M93.7 347.2c75.2 34.6 189.6 8.7 227.6-26.6" fill="none"/><path stroke="#F4C236" stroke-width="10" stroke-linecap="round" stroke-miterlimit="10" stroke-dasharray="0.1,17.5" d="M95 295.2c81.1 16.5 146.6-27.6 175.5-70.6" fill="none"/><path stroke="#F4C236" stroke-width="10" stroke-linecap="round" stroke-miterlimit="10" stroke-dasharray="0.1,17.5" d="M94.9 222.8c58.2-1.4 96.1-26 116.8-73.5" fill="none"/><path fill="#fff" d="M103.2 311.9c-5.4 10.2-18.1 14-28.3 8.6s-14-18.1-8.6-28.3l4.9-9.2c5.4-10.2 18.1-14 28.3-8.6s14 18.1 8.6 28.3l-4.9 9.2z"/><path fill="#fff" d="M292.2 261.5c9.4 6.7 22.4 4.5 29.1-4.9 6.7-9.4 4.5-22.4-4.9-29.1l-8.5-6.1c-9.4-6.7-22.4-4.5-29.1 4.9-6.7 9.4-4.5 22.4 4.9 29.1l8.5 6.1z"/><path fill="#4E4E4E" d="M303.3 147.5c-1.9 12.5-13.5 21-26 19.1-12.4-1.9-21-13.6-19.1-26"/></svg>
